src/images/solutions-data-img1.svg

<svg width="422" height="422" viewBox="0 0 422 422" fill="none" xmlns="http://www.w3.org/2000/svg">
<circle cx="204" cy="210" r="136" fill="#F0F0F2"/>
<circle cx="204" cy="210" r="182" stroke="#DAD9D7" stroke-width="2" stroke-dasharray="4 4"/>
<path d="M132.067 126.012C130.466 126.012 128.931 126.648 127.8 127.78C126.668 128.911 126.032 130.446 126.032 132.047V288.945C126.032 290.546 126.668 292.081 127.8 293.213C128.931 294.344 130.466 294.98 132.067 294.98H207.088V126.012H132.067ZM192.412 213.513H141.119C140.318 213.513 139.551 213.195 138.985 212.63C138.419 212.064 138.101 211.296 138.101 210.496C138.101 209.696 138.419 208.928 138.985 208.363C139.551 207.797 140.318 207.479 141.119 207.479H192.412C193.213 207.479 193.98 207.797 194.546 208.363C195.112 208.928 195.43 209.696 195.43 210.496C195.43 211.296 195.112 212.064 194.546 212.63C193.98 213.195 193.213 213.513 192.412 213.513ZM192.412 186.358H141.119C140.318 186.358 139.551 186.04 138.985 185.474C138.419 184.908 138.101 184.141 138.101 183.341C138.101 182.54 138.419 181.773 138.985 181.207C139.551 180.641 140.318 180.323 141.119 180.323H192.412C193.213 180.323 193.98 180.641 194.546 181.207C195.112 181.773 195.43 182.54 195.43 183.341C195.43 184.141 195.112 184.908 194.546 185.474C193.98 186.04 193.213 186.358 192.412 186.358ZM192.412 159.202H141.119C140.318 159.202 139.551 158.884 138.985 158.319C138.419 157.753 138.101 156.985 138.101 156.185C138.101 155.385 138.419 154.617 138.985 154.051C139.551 153.486 140.318 153.168 141.119 153.168H192.412C193.213 153.168 193.98 153.486 194.546 154.051C195.112 154.617 195.43 155.385 195.43 156.185C195.43 156.985 195.112 157.753 194.546 158.319C193.98 158.884 193.213 159.202 192.412 159.202Z" fill="#5754EA"/>
<path d="M225.072 159.733L226.486 158.319L225.072 159.733C226.013 160.674 227.289 161.202 228.62 161.202H279.913C281.244 161.202 282.52 160.674 283.461 159.733C284.402 158.792 284.931 157.516 284.931 156.185C284.931 154.854 284.402 153.578 283.461 152.637C282.52 151.696 281.244 151.168 279.913 151.168H228.62C227.289 151.168 226.013 151.696 225.072 152.637C224.131 153.578 223.602 154.854 223.602 156.185C223.602 157.516 224.131 158.792 225.072 159.733ZM291.818 129.194L293.232 127.78L291.818 129.194C292.575 129.951 293 130.977 293 132.047V288.945C293 290.015 292.575 291.042 291.818 291.798C291.062 292.555 290.035 292.98 288.965 292.98H215.533V128.012H288.965C290.035 128.012 291.061 128.437 291.818 129.194ZM228.62 215.513H279.913C281.244 215.513 282.52 214.985 283.461 214.044C284.402 213.103 284.931 211.827 284.931 210.496C284.931 209.165 284.402 207.889 283.461 206.948C282.52 206.007 281.244 205.479 279.913 205.479H228.62C227.289 205.479 226.013 206.007 225.072 206.948C224.131 207.889 223.602 209.165 223.602 210.496C223.602 211.827 224.131 213.103 225.072 214.044C226.013 214.985 227.289 215.513 228.62 215.513ZM228.62 188.358H279.913C281.244 188.358 282.52 187.829 283.461 186.888C284.402 185.947 284.931 184.671 284.931 183.341C284.931 182.01 284.402 180.734 283.461 179.793C282.52 178.852 281.244 178.323 279.913 178.323H228.62C227.289 178.323 226.013 178.852 225.072 179.793C224.131 180.734 223.602 182.01 223.602 183.341C223.602 184.671 224.131 185.947 225.072 186.888C226.013 187.829 227.289 188.358 228.62 188.358Z" fill="#CBF4F0" stroke="#5754EA" stroke-width="4"/>
<rect x="225" y="153" width="58" height="8" rx="4" fill="#5754EA"/>
<rect x="225" y="180" width="58" height="8" rx="4" fill="#5754EA"/>
<rect x="225" y="207" width="59" height="8" rx="4" fill="#5754EA"/>
<path d="M321.001 235.668L331.001 241.441L331.001 229.894L321.001 235.668ZM414.255 241.683L414.962 240.976L414.255 241.683ZM421.27 298.995L421.27 296.855L419.27 296.855L419.27 298.995L421.27 298.995ZM421.27 292.576L421.27 288.298L419.27 288.298L419.27 292.576L421.27 292.576ZM421.27 284.019L421.27 279.74L419.27 279.74L419.27 284.019L421.27 284.019ZM421.27 275.461L421.27 271.182L419.27 271.182L419.27 275.461L421.27 275.461ZM421.27 266.903L421.27 262.624L419.27 262.624L419.27 266.903L421.27 266.903ZM421.27 258.346L421.27 256.206L419.27 256.206L419.27 258.346L421.27 258.346ZM421.27 256.206C421.27 255.498 421.235 254.794 421.167 254.095L419.176 254.291C419.239 254.925 419.27 255.564 419.27 256.206L421.27 256.206ZM420.343 249.954C419.933 248.604 419.392 247.297 418.727 246.053L416.963 246.996C417.566 248.124 418.057 249.31 418.429 250.534L420.343 249.954ZM416.381 242.542C415.936 242 415.462 241.477 414.962 240.976L413.548 242.39C414.002 242.845 414.431 243.319 414.835 243.811L416.381 242.542ZM414.962 240.976C414.461 240.476 413.938 240.002 413.396 239.557L412.127 241.103C412.619 241.507 413.093 241.936 413.548 242.39L414.962 240.976ZM409.885 237.211C408.641 236.546 407.334 236.005 405.984 235.595L405.403 237.509C406.628 237.881 407.813 238.372 408.942 238.975L409.885 237.211ZM401.843 234.771C401.144 234.703 400.44 234.668 399.732 234.668L399.732 236.668C400.374 236.668 401.013 236.699 401.647 236.762L401.843 234.771ZM399.732 234.668L397.763 234.668L397.763 236.668L399.732 236.668L399.732 234.668ZM393.827 234.668L389.89 234.668L389.89 236.668L393.827 236.668L393.827 234.668ZM385.954 234.668L382.017 234.668L382.017 236.668L385.954 236.668L385.954 234.668ZM378.081 234.668L374.144 234.668L374.144 236.668L378.081 236.668L378.081 234.668ZM370.208 234.668L366.271 234.668L366.271 236.668L370.208 236.668L370.208 234.668ZM362.335 234.668L358.398 234.668L358.398 236.668L362.335 236.668L362.335 234.668ZM354.462 234.668L350.525 234.668L350.525 236.668L354.462 236.668L354.462 234.668ZM346.588 234.668L342.652 234.668L342.652 236.668L346.588 236.668L346.588 234.668ZM338.715 234.668L334.779 234.668L334.779 236.668L338.715 236.668L338.715 234.668ZM330.842 234.668L326.906 234.668L326.906 236.668L330.842 236.668L330.842 234.668Z" fill="#5754EA"/>
<path d="M321.002 176.327L331.002 170.553L331.002 182.1L321.002 176.327ZM414.256 170.311L414.963 171.018L414.256 170.311ZM421.271 113L421.271 115.139L419.271 115.139L419.271 113L421.271 113ZM421.271 119.418L421.271 123.697L419.271 123.697L419.271 119.418L421.271 119.418ZM421.271 127.976L421.271 132.255L419.271 132.255L419.271 127.976L421.271 127.976ZM421.271 136.534L421.271 140.812L419.271 140.812L419.271 136.534L421.271 136.534ZM421.271 145.091L421.271 149.37L419.271 149.37L419.271 145.091L421.271 145.091ZM421.271 153.649L421.271 155.788L419.271 155.788L419.271 153.649L421.271 153.649ZM421.271 155.788C421.271 156.496 421.236 157.201 421.168 157.9L419.177 157.704C419.24 157.07 419.271 156.431 419.271 155.788L421.271 155.788ZM420.344 162.041C419.934 163.391 419.393 164.697 418.728 165.942L416.964 164.999C417.567 163.87 418.058 162.685 418.43 161.46L420.344 162.041ZM416.382 169.452C415.937 169.995 415.463 170.518 414.963 171.018L413.549 169.604C414.003 169.15 414.432 168.676 414.836 168.183L416.382 169.452ZM414.963 171.018C414.462 171.519 413.939 171.993 413.397 172.438L412.128 170.892C412.62 170.488 413.094 170.058 413.549 169.604L414.963 171.018ZM409.886 174.784C408.642 175.449 407.335 175.99 405.985 176.399L405.404 174.486C406.629 174.114 407.814 173.623 408.943 173.02L409.886 174.784ZM401.844 177.223C401.145 177.292 400.441 177.327 399.733 177.327L399.733 175.327C400.375 175.327 401.014 175.295 401.648 175.233L401.844 177.223ZM399.733 177.327L397.764 177.327L397.764 175.327L399.733 175.327L399.733 177.327ZM393.828 177.327L389.891 177.327L389.891 175.327L393.828 175.327L393.828 177.327ZM385.955 177.327L382.018 177.327L382.018 175.327L385.955 175.327L385.955 177.327ZM378.082 177.327L374.145 177.327L374.145 175.327L378.082 175.327L378.082 177.327ZM370.209 177.327L366.272 177.327L366.272 175.327L370.209 175.327L370.209 177.327ZM362.336 177.327L358.399 177.327L358.399 175.327L362.336 175.327L362.336 177.327ZM354.463 177.327L350.526 177.327L350.526 175.327L354.463 175.327L354.463 177.327ZM346.589 177.327L342.653 177.327L342.653 175.327L346.589 175.327L346.589 177.327ZM338.716 177.327L334.78 177.327L334.78 175.327L338.716 175.327L338.716 177.327ZM330.843 177.327L326.907 177.327L326.907 175.327L330.843 175.327L330.843 177.327Z" fill="#5754EA"/>
<path d="M173.333 321L167.559 331L179.106 331L173.333 321ZM173.333 399.731H174.333H173.333ZM110.006 419.269C109.454 419.269 109.006 419.717 109.006 420.269C109.006 420.822 109.454 421.269 110.006 421.269V419.269ZM172.333 330L172.333 399.731H174.333L174.333 330H172.333ZM172.333 399.731C172.333 404.913 170.274 409.882 166.61 413.547L168.024 414.961C172.064 410.922 174.333 405.443 174.333 399.731H172.333ZM166.61 413.547C162.946 417.211 157.976 419.269 152.794 419.269V421.269C158.507 421.269 163.985 419 168.024 414.961L166.61 413.547ZM152.794 419.269L110.006 419.269V421.269L152.794 421.269V419.269Z" fill="#5754EA"/>
<path d="M173.333 100.27L167.559 90.2697L179.106 90.2697L173.333 100.27ZM173.333 21.5389H174.333H173.333ZM110.006 2.00048C109.454 2.00048 109.006 1.55276 109.006 1.00048C109.006 0.448196 109.454 0.000480652 110.006 0.000480652V2.00048ZM172.333 91.2697L172.333 21.5389H174.333L174.333 91.2697H172.333ZM172.333 21.5389C172.333 16.357 170.274 11.3873 166.61 7.72316L168.024 6.30894C172.064 10.3482 174.333 15.8266 174.333 21.5389H172.333ZM166.61 7.72316C162.946 4.05899 157.976 2.00048 152.794 2.00048V0.000480652C158.507 0.000480652 163.985 2.2697 168.024 6.30894L166.61 7.72316ZM152.794 2.00048L110.006 2.00048V0.000480652L152.794 0.000480652V2.00048Z" fill="#5754EA"/>
<path d="M247.679 321L253.452 331L241.905 331L247.679 321ZM253.695 414.254L252.987 414.961L253.695 414.254ZM311.006 419.27C311.558 419.27 312.006 419.717 312.006 420.27C312.006 420.822 311.558 421.27 311.006 421.27L311.006 419.27ZM311.006 421.27L308.866 421.27L308.866 419.27L311.006 419.27L311.006 421.27ZM304.588 421.27L300.309 421.27L300.309 419.27L304.588 419.27L304.588 421.27ZM296.03 421.27L291.751 421.27L291.751 419.27L296.03 419.27L296.03 421.27ZM287.472 421.27L283.193 421.27L283.193 419.27L287.472 419.27L287.472 421.27ZM278.915 421.27L274.636 421.27L274.636 419.27L278.915 419.27L278.915 421.27ZM270.357 421.27L268.217 421.27L268.217 419.27L270.357 419.27L270.357 421.27ZM268.217 421.27C267.509 421.27 266.805 421.235 266.106 421.166L266.302 419.176C266.936 419.238 267.575 419.27 268.217 419.27L268.217 421.27ZM261.965 420.342C260.615 419.933 259.308 419.392 258.064 418.727L259.007 416.963C260.136 417.566 261.321 418.057 262.546 418.428L261.965 420.342ZM254.553 416.381C254.011 415.935 253.488 415.462 252.987 414.961L254.402 413.547C254.856 414.001 255.33 414.431 255.822 414.835L254.553 416.381ZM252.987 414.961C252.487 414.461 252.013 413.938 251.568 413.395L253.114 412.126C253.518 412.619 253.947 413.093 254.402 413.547L252.987 414.961ZM249.222 409.884C248.557 408.64 248.016 407.334 247.606 405.984L249.52 405.403C249.892 406.628 250.383 407.813 250.986 408.942L249.222 409.884ZM246.783 401.842C246.714 401.144 246.679 400.439 246.679 399.731L248.679 399.731C248.679 400.374 248.711 401.013 248.773 401.646L246.783 401.842ZM246.679 399.731L246.679 397.763L248.679 397.763L248.679 399.731L246.679 399.731ZM246.679 393.826L246.679 389.89L248.679 389.89L248.679 393.826L246.679 393.826ZM246.679 385.953L246.679 382.017L248.679 382.017L248.679 385.953L246.679 385.953ZM246.679 378.08L246.679 374.144L248.679 374.144L248.679 378.08L246.679 378.08ZM246.679 370.207L246.679 366.271L248.679 366.271L248.679 370.207L246.679 370.207ZM246.679 362.334L246.679 358.398L248.679 358.398L248.679 362.334L246.679 362.334ZM246.679 354.461L246.679 350.525L248.679 350.525L248.679 354.461L246.679 354.461ZM246.679 346.588L246.679 342.651L248.679 342.651L248.679 346.588L246.679 346.588ZM246.679 338.715L246.679 334.778L248.679 334.778L248.679 338.715L246.679 338.715ZM246.679 330.842L246.679 326.905L248.679 326.905L248.679 330.842L246.679 330.842Z" fill="#5754EA"/>
<path d="M247.679 100.269L253.452 90.2692L241.905 90.2692L247.679 100.269ZM253.695 7.01557L252.987 6.30846L253.695 7.01557ZM311.006 1.99999C311.558 1.99999 312.006 1.55228 312.006 0.999992C312.006 0.447708 311.558 -7.68777e-06 311.006 -7.62939e-06L311.006 1.99999ZM311.006 -7.62939e-06L308.866 -7.40326e-06L308.866 1.99999L311.006 1.99999L311.006 -7.62939e-06ZM304.588 -6.95098e-06L300.309 -6.4987e-06L300.309 1.99999L304.588 1.99999L304.588 -6.95098e-06ZM296.03 -6.04642e-06L291.751 -5.59414e-06L291.751 1.99999L296.03 1.99999L296.03 -6.04642e-06ZM287.472 -5.14187e-06L283.193 -4.68959e-06L283.193 2L287.472 1.99999L287.472 -5.14187e-06ZM278.915 -4.23731e-06L274.636 -3.78503e-06L274.636 2L278.915 2L278.915 -4.23731e-06ZM270.357 -3.33276e-06L268.217 -3.10662e-06L268.217 2L270.357 2L270.357 -3.33276e-06ZM268.217 -3.10662e-06C267.509 -3.03178e-06 266.805 0.0348634 266.106 0.103642L266.302 2.09402C266.936 2.03163 267.575 2 268.217 2L268.217 -3.10662e-06ZM261.965 0.927411C260.615 1.33697 259.308 1.8782 258.064 2.54319L259.007 4.30706C260.136 3.7038 261.321 3.21281 262.546 2.84128L261.965 0.927411ZM254.553 4.88896C254.011 5.33432 253.488 5.80781 252.987 6.30846L254.402 7.72268C254.856 7.26845 255.33 6.83892 255.822 6.43494L254.553 4.88896ZM252.987 6.30846C252.487 6.80913 252.013 7.33192 251.568 7.87455L253.114 9.14339C253.518 8.65117 253.947 8.1769 254.402 7.72268L252.987 6.30846ZM249.222 11.3853C248.557 12.6295 248.016 13.9361 247.606 15.2861L249.52 15.8668C249.892 14.6421 250.383 13.4567 250.986 12.328L249.222 11.3853ZM246.783 19.4273C246.714 20.1259 246.679 20.8304 246.679 21.5385L248.679 21.5385C248.679 20.8961 248.711 20.257 248.773 19.6233L246.783 19.4273ZM246.679 21.5385L246.679 23.5067L248.679 23.5067L248.679 21.5385L246.679 21.5385ZM246.679 27.4433L246.679 31.3798L248.679 31.3798L248.679 27.4433L246.679 27.4433ZM246.679 35.3163L246.679 39.2529L248.679 39.2529L248.679 35.3163L246.679 35.3163ZM246.679 43.1894L246.679 47.126L248.679 47.126L248.679 43.1894L246.679 43.1894ZM246.679 51.0625L246.679 54.999L248.679 54.999L248.679 51.0625L246.679 51.0625ZM246.679 58.9356L246.679 62.8721L248.679 62.8721L248.679 58.9356L246.679 58.9356ZM246.679 66.8087L246.679 70.7452L248.679 70.7452L248.679 66.8087L246.679 66.8087ZM246.679 74.6817L246.679 78.6183L248.679 78.6183L248.679 74.6817L246.679 74.6817ZM246.679 82.5548L246.679 86.4913L248.679 86.4913L248.679 82.5548L246.679 82.5548ZM246.679 90.4279L246.679 94.3644L248.679 94.3644L248.679 90.4279L246.679 90.4279Z" fill="#5754EA"/>
<path d="M100.27 235.668L90.2695 241.441L90.2695 229.894L100.27 235.668ZM21.5388 235.668L21.5388 234.668L21.5388 235.668ZM2.0003 298.995C2.0003 299.547 1.55258 299.995 1.0003 299.995C0.448013 299.995 0.000297526 299.547 0.000297546 298.995L2.0003 298.995ZM91.2695 236.668L21.5388 236.668L21.5388 234.668L91.2695 234.668L91.2695 236.668ZM21.5388 236.668C16.3568 236.668 11.3871 238.726 7.72298 242.39L6.30876 240.976C10.348 236.937 15.8264 234.668 21.5388 234.668L21.5388 236.668ZM7.72298 242.39C4.05881 246.055 2.0003 251.024 2.0003 256.206L0.000299093 256.206C0.0002993 250.494 2.26952 245.015 6.30876 240.976L7.72298 242.39ZM2.0003 256.206L2.0003 298.995L0.000297546 298.995L0.000299093 256.206L2.0003 256.206Z" fill="#5754EA"/>
<path d="M100.27 176.327L90.2695 170.553L90.2695 182.1L100.27 176.327ZM21.5388 176.327L21.5388 177.327L21.5388 176.327ZM2.0003 113C2.0003 112.448 1.55258 112 1.0003 112C0.448013 112 0.000297526 112.448 0.000297546 113L2.0003 113ZM91.2695 175.327L21.5388 175.327L21.5388 177.327L91.2695 177.327L91.2695 175.327ZM21.5388 175.327C16.3568 175.327 11.3871 173.268 7.72298 169.604L6.30876 171.018C10.348 175.058 15.8264 177.327 21.5388 177.327L21.5388 175.327ZM7.72298 169.604C4.05881 165.94 2.0003 160.97 2.0003 155.788L0.000299093 155.788C0.0002993 161.501 2.26952 166.979 6.30876 171.018L7.72298 169.604ZM2.0003 155.788L2.0003 113L0.000297546 113L0.000299093 155.788L2.0003 155.788Z" fill="#5754EA"/>
</svg>

<?xml version="1.0" encoding="UTF-8"?>
<svg fill="none" viewBox="0 0 422 422" xmlns="http://www.w3.org/2000/svg">
<circle cx="204" cy="210" r="136" fill="#F0F0F2"/>
<circle cx="204" cy="210" r="182" stroke="#DAD9D7" stroke-dasharray="4 4" stroke-width="2"/>
<path d="m132.07 126.01c-1.601 0-3.136 0.636-4.267 1.768-1.132 1.131-1.768 2.666-1.768 4.267v156.9c0 1.601 0.636 3.136 1.768 4.268 1.131 1.131 2.666 1.767 4.267 1.767h75.021v-168.97h-75.021zm60.345 87.501h-51.293c-0.801 0-1.568-0.318-2.134-0.883-0.566-0.566-0.884-1.334-0.884-2.134s0.318-1.568 0.884-2.133c0.566-0.566 1.333-0.884 2.134-0.884h51.293c0.801 0 1.568 0.318 2.134 0.884 0.566 0.565 0.884 1.333 0.884 2.133s-0.318 1.568-0.884 2.134c-0.566 0.565-1.333 0.883-2.134 0.883zm0-27.155h-51.293c-0.801 0-1.568-0.318-2.134-0.884s-0.884-1.333-0.884-2.133c0-0.801 0.318-1.568 0.884-2.134s1.333-0.884 2.134-0.884h51.293c0.801 0 1.568 0.318 2.134 0.884s0.884 1.333 0.884 2.134c0 0.8-0.318 1.567-0.884 2.133s-1.333 0.884-2.134 0.884zm0-27.156h-51.293c-0.801 0-1.568-0.318-2.134-0.883-0.566-0.566-0.884-1.334-0.884-2.134s0.318-1.568 0.884-2.134c0.566-0.565 1.333-0.883 2.134-0.883h51.293c0.801 0 1.568 0.318 2.134 0.883 0.566 0.566 0.884 1.334 0.884 2.134s-0.318 1.568-0.884 2.134c-0.566 0.565-1.333 0.883-2.134 0.883z" fill="#5754EA"/>
<path d="m225.07 159.73 1.414-1.414-1.414 1.414c0.941 0.941 2.217 1.469 3.548 1.469h51.293c1.331 0 2.607-0.528 3.548-1.469s1.47-2.217 1.47-3.548-0.529-2.607-1.47-3.548-2.217-1.469-3.548-1.469h-51.293c-1.331 0-2.607 0.528-3.548 1.469s-1.47 2.217-1.47 3.548 0.529 2.607 1.47 3.548zm66.746-30.539 1.414-1.414-1.414 1.414c0.757 0.757 1.182 1.783 1.182 2.853v156.9c0 1.07-0.425 2.097-1.182 2.853-0.756 0.757-1.783 1.182-2.853 1.182h-73.432v-164.97h73.432c1.07 0 2.096 0.425 2.853 1.182zm-63.198 86.319h51.293c1.331 0 2.607-0.528 3.548-1.469s1.47-2.217 1.47-3.548-0.529-2.607-1.47-3.548-2.217-1.469-3.548-1.469h-51.293c-1.331 0-2.607 0.528-3.548 1.469s-1.47 2.217-1.47 3.548 0.529 2.607 1.47 3.548 2.217 1.469 3.548 1.469zm0-27.155h51.293c1.331 0 2.607-0.529 3.548-1.47s1.47-2.217 1.47-3.547c0-1.331-0.529-2.607-1.47-3.548s-2.217-1.47-3.548-1.47h-51.293c-1.331 0-2.607 0.529-3.548 1.47s-1.47 2.217-1.47 3.548c0 1.33 0.529 2.606 1.47 3.547s2.217 1.47 3.548 1.47z" fill="#CBF4F0" stroke="#5754EA" stroke-width="4"/>
<rect x="225" y="153" width="58" height="8" rx="4" fill="#5754EA"/>
<rect x="225" y="180" width="58" height="8" rx="4" fill="#5754EA"/>
<rect x="225" y="207" width="59" height="8" rx="4" fill="#5754EA"/>
<path d="m321 235.67 10 5.773v-11.547l-10 5.774zm93.254 6.015 0.707-0.707-0.707 0.707zm7.015 57.312v-2.14h-2v2.14h2zm0-6.419v-4.278h-2v4.278h2zm0-8.557v-4.279h-2v4.279h2zm0-8.558v-4.279h-2v4.279h2zm0-8.558v-4.279h-2v4.279h2zm0-8.557v-2.14h-2v2.14h2zm0-2.14c0-0.708-0.035-1.412-0.103-2.111l-1.991 0.196c0.063 0.634 0.094 1.273 0.094 1.915h2zm-0.927-6.252c-0.41-1.35-0.951-2.657-1.616-3.901l-1.764 0.943c0.603 1.128 1.094 2.314 1.466 3.538l1.914-0.58zm-3.962-7.412c-0.445-0.542-0.919-1.065-1.419-1.566l-1.414 1.414c0.454 0.455 0.883 0.929 1.287 1.421l1.546-1.269zm-1.419-1.566c-0.501-0.5-1.024-0.974-1.566-1.419l-1.269 1.546c0.492 0.404 0.966 0.833 1.421 1.287l1.414-1.414zm-5.077-3.765c-1.244-0.665-2.551-1.206-3.901-1.616l-0.581 1.914c1.225 0.372 2.41 0.863 3.539 1.466l0.943-1.764zm-8.042-2.44c-0.699-0.068-1.403-0.103-2.111-0.103v2c0.642 0 1.281 0.031 1.915 0.094l0.196-1.991zm-2.111-0.103h-1.969v2h1.969v-2zm-5.905 0h-3.937v2h3.937v-2zm-7.873 0h-3.937v2h3.937v-2zm-7.873 0h-3.937v2h3.937v-2zm-7.873 0h-3.937v2h3.937v-2zm-7.873 0h-3.937v2h3.937v-2zm-7.873 0h-3.937v2h3.937v-2zm-7.874 0h-3.936v2h3.936v-2zm-7.873 0h-3.936v2h3.936v-2zm-7.873 0h-3.936v2h3.936v-2z" fill="#5754EA"/>
<path d="m321 176.33 10-5.774v11.547l-10-5.773zm93.254-6.016 0.707 0.707-0.707-0.707zm7.015-57.311v2.139h-2v-2.139h2zm0 6.418v4.279h-2v-4.279h2zm0 8.558v4.279h-2v-4.279h2zm0 8.558v4.278h-2v-4.278h2zm0 8.557v4.279h-2v-4.279h2zm0 8.558v2.139h-2v-2.139h2zm0 2.139c0 0.708-0.035 1.413-0.103 2.112l-1.991-0.196c0.063-0.634 0.094-1.273 0.094-1.916h2zm-0.927 6.253c-0.41 1.35-0.951 2.656-1.616 3.901l-1.764-0.943c0.603-1.129 1.094-2.314 1.466-3.539l1.914 0.581zm-3.962 7.411c-0.445 0.543-0.919 1.066-1.419 1.566l-1.414-1.414c0.454-0.454 0.883-0.928 1.287-1.421l1.546 1.269zm-1.419 1.566c-0.501 0.501-1.024 0.975-1.566 1.42l-1.269-1.546c0.492-0.404 0.966-0.834 1.421-1.288l1.414 1.414zm-5.077 3.766c-1.244 0.665-2.551 1.206-3.901 1.615l-0.581-1.913c1.225-0.372 2.41-0.863 3.539-1.466l0.943 1.764zm-8.042 2.439c-0.699 0.069-1.403 0.104-2.111 0.104v-2c0.642 0 1.281-0.032 1.915-0.094l0.196 1.99zm-2.111 0.104h-1.969v-2h1.969v2zm-5.905 0h-3.937v-2h3.937v2zm-7.873 0h-3.937v-2h3.937v2zm-7.873 0h-3.937v-2h3.937v2zm-7.873 0h-3.937v-2h3.937v2zm-7.873 0h-3.937v-2h3.937v2zm-7.873 0h-3.937v-2h3.937v2zm-7.874 0h-3.936v-2h3.936v2zm-7.873 0h-3.936v-2h3.936v2zm-7.873 0h-3.936v-2h3.936v2z" fill="#5754EA"/>
<path d="m173.33 321-5.774 10h11.547l-5.773-10zm0 78.731h1-1zm-63.327 19.538c-0.552 0-1 0.448-1 1 0 0.553 0.448 1 1 1v-2zm62.327-89.269v69.731h2v-69.731h-2zm0 69.731c0 5.182-2.059 10.151-5.723 13.816l1.414 1.414c4.04-4.039 6.309-9.518 6.309-15.23h-2zm-5.723 13.816c-3.664 3.664-8.634 5.722-13.816 5.722v2c5.713 0 11.191-2.269 15.23-6.308l-1.414-1.414zm-13.816 5.722h-42.788v2h42.788v-2z" fill="#5754EA"/>
<path d="m173.33 100.27-5.774-10h11.547l-5.773 10zm0-78.731h1-1zm-63.327-19.538c-0.552 0-1-0.44772-1-1 0-0.55228 0.448-1 1-1v2zm62.327 89.269v-69.731h2v69.731h-2zm0-69.731c0-5.1819-2.059-10.152-5.723-13.816l1.414-1.4142c4.04 4.0393 6.309 9.5177 6.309 15.23h-2zm-5.723-13.816c-3.664-3.6642-8.634-5.7227-13.816-5.7227v-2c5.713 0 11.191 2.2692 15.23 6.3085l-1.414 1.4142zm-13.816-5.7227h-42.788v-2h42.788v2z" fill="#5754EA"/>
<path d="m247.68 321 5.773 10h-11.547l5.774-10zm6.016 93.254-0.708 0.707 0.708-0.707zm57.311 5.016c0.552 0 1 0.447 1 1 0 0.552-0.448 1-1 1v-2zm0 2h-2.14v-2h2.14v2zm-6.418 0h-4.279v-2h4.279v2zm-8.558 0h-4.279v-2h4.279v2zm-8.558 0h-4.279v-2h4.279v2zm-8.557 0h-4.279v-2h4.279v2zm-8.558 0h-2.14v-2h2.14v2zm-2.14 0c-0.708 0-1.412-0.035-2.111-0.104l0.196-1.99c0.634 0.062 1.273 0.094 1.915 0.094v2zm-6.252-0.928c-1.35-0.409-2.657-0.95-3.901-1.615l0.943-1.764c1.129 0.603 2.314 1.094 3.539 1.465l-0.581 1.914zm-7.412-3.961c-0.542-0.446-1.065-0.919-1.566-1.42l1.415-1.414c0.454 0.454 0.928 0.884 1.42 1.288l-1.269 1.546zm-1.566-1.42c-0.5-0.5-0.974-1.023-1.419-1.566l1.546-1.269c0.404 0.493 0.833 0.967 1.288 1.421l-1.415 1.414zm-3.765-5.077c-0.665-1.244-1.206-2.55-1.616-3.9l1.914-0.581c0.372 1.225 0.863 2.41 1.466 3.539l-1.764 0.942zm-2.439-8.042c-0.069-0.698-0.104-1.403-0.104-2.111h2c0 0.643 0.032 1.282 0.094 1.915l-1.99 0.196zm-0.104-2.111v-1.968h2v1.968h-2zm0-5.905v-3.936h2v3.936h-2zm0-7.873v-3.936h2v3.936h-2zm0-7.873v-3.936h2v3.936h-2zm0-7.873v-3.936h2v3.936h-2zm0-7.873v-3.936h2v3.936h-2zm0-7.873v-3.936h2v3.936h-2zm0-7.873v-3.937h2v3.937h-2zm0-7.873v-3.937h2v3.937h-2zm0-7.873v-3.937h2v3.937h-2z" fill="#5754EA"/>
<path d="m247.68 100.27 5.773-9.9998h-11.547l5.774 9.9998zm6.016-93.253-0.708-0.70711 0.708 0.70711zm57.311-5.0156c0.552 0 1-0.44771 1-1 0-0.55228-0.448-1-1-1v2zm0-2-2.14 2.2613e-7v2h2.14v-2zm-6.418 6.7841e-7 -4.279 4.5228e-7v2h4.279v-2zm-8.558 9.0456e-7 -4.279 4.5228e-7v2h4.279v-2zm-8.558 9.0455e-7 -4.279 4.5228e-7v2l4.279-1e-5v-2zm-8.557 9.0456e-7 -4.279 4.5228e-7v2h4.279v-2zm-8.558 9.0455e-7 -2.14 2.2614e-7v2h2.14v-2zm-2.14 2.2614e-7c-0.708 7.484e-8 -1.412 0.034867-2.111 0.10365l0.196 1.9904c0.634-0.06239 1.273-0.09402 1.915-0.09402v-2zm-6.252 0.92741c-1.35 0.40956-2.657 0.95079-3.901 1.6158l0.943 1.7639c1.129-0.60326 2.314-1.0942 3.539-1.4658l-0.581-1.9139zm-7.412 3.9615c-0.542 0.44536-1.065 0.91885-1.566 1.4195l1.415 1.4142c0.454-0.45423 0.928-0.88376 1.42-1.2877l-1.269-1.546zm-1.566 1.4195c-0.5 0.50067-0.974 1.0235-1.419 1.5661l1.546 1.2688c0.404-0.49222 0.833-0.96649 1.288-1.4207l-1.415-1.4142zm-3.765 5.0768c-0.665 1.2442-1.206 2.5508-1.616 3.9008l1.914 0.5807c0.372-1.2247 0.863-2.4101 1.466-3.5388l-1.764-0.9427zm-2.439 8.042c-0.069 0.6986-0.104 1.4031-0.104 2.1112h2c0-0.6424 0.032-1.2815 0.094-1.9152l-1.99-0.196zm-0.104 2.1112v1.9682h2v-1.9682h-2zm0 5.9048v3.9365h2v-3.9365h-2zm0 7.873v3.9366h2v-3.9366h-2zm0 7.8731v3.9366h2v-3.9366h-2zm0 7.8731v3.9365h2v-3.9365h-2zm0 7.8731v3.9365h2v-3.9365h-2zm0 7.8731v3.9365h2v-3.9365h-2zm0 7.873v3.9366h2v-3.9366h-2zm0 7.8731v3.9365h2v-3.9365h-2zm0 7.8731v3.9365h2v-3.9365h-2z" fill="#5754EA"/>
<path d="m100.27 235.67-10 5.773v-11.547l10 5.774zm-78.731 0v-1 1zm-19.538 63.327c0 0.552-0.44772 1-1 1-0.55229 0-1-0.448-1-1h2zm89.269-62.327h-69.731v-2h69.731v2zm-69.731 0c-5.182 0-10.152 2.058-13.816 5.722l-1.4142-1.414c4.0392-4.039 9.5176-6.308 15.23-6.308v2zm-13.816 5.722c-3.6642 3.665-5.7227 8.634-5.7227 13.816h-2c2.07e-7 -5.712 2.2692-11.191 6.3085-15.23l1.4142 1.414zm-5.7227 13.816v42.789h-2l1.547e-6 -42.789h2z" fill="#5754EA"/>
<path d="m100.27 176.33-10-5.774v11.547l10-5.773zm-78.731 0v1-1zm-19.538-63.327c0-0.552-0.44772-1-1-1-0.55229 0-1 0.448-1 1h2zm89.269 62.327h-69.731v2h69.731v-2zm-69.731 0c-5.182 0-10.152-2.059-13.816-5.723l-1.4142 1.414c4.0392 4.04 9.5176 6.309 15.23 6.309v-2zm-13.816-5.723c-3.6642-3.664-5.7227-8.634-5.7227-13.816h-2c2.07e-7 5.713 2.2692 11.191 6.3085 15.23l1.4142-1.414zm-5.7227-13.816v-42.788h-2l1.547e-6 42.788h2z" fill="#5754EA"/>
</svg>
